src/actions/16/document-open-recent.svg

<svg version="1.1" viewBox="0 0 16 16" xmlns="http://www.w3.org/2000/svg">
 <defs>
  <style id="current-color-scheme" type="text/css">.ColorScheme-Text {
        color:#363636;
      }</style>
 </defs>
 <path class="ColorScheme-Text" d="m7 0c-1.108 0-2 0.892-2 2v1h-2c-1.108 0-2 0.892-2 2v9c0 1.108 0.892 2 2 2h6c0.52949 0 1.0062-0.20738 1.3633-0.54102a4.5 4.5 0 0 1-0.86328-0.61133c-0.14906 0.088077-0.31363 0.15234-0.5 0.15234h-6c-0.554 0-1-0.446-1-1v-9c0-0.1385 0.027656-0.27092 0.078125-0.39062 0.15141-0.35916 0.50638-0.60938 0.92188-0.60938h2v4 1h3.7598a4.5 4.5 0 0 1 1.7207-1.5195l-4.4805-4.4805v-1c0-0.1385 0.027656-0.27092 0.078125-0.39062 0.15141-0.35916 0.50638-0.60938 0.92188-0.60938h2v4 1h5v1.2637a4.5 4.5 0 0 1 1 0.49609v-1.3457-1.4141l-5-5h-1-2zm3 1.4141 3.5859 3.5859h-3.5859v-3.5859zm-4 3 3.5859 3.5859h-3.5859v-3.5859z" fill="currentColor"/>
 <path class="ColorScheme-Text" d="m12.5 8c-1.933 0-3.5 1.567-3.5 3.5s1.567 3.5 3.5 3.5 3.5-1.567 3.5-3.5-1.567-3.5-3.5-3.5zm-1 1c0.277 0 0.5 0.223 0.5 0.5v2.5h2.5c0.277 0 0.5 0.223 0.5 0.5s-0.223 0.5-0.5 0.5h-3c-0.277 0-0.5-0.223-0.5-0.5v-3c0-0.277 0.223-0.5 0.5-0.5z" fill="currentColor"/>
</svg>

<svg xmlns="http://www.w3.org/2000/svg" viewBox="0 0 16 16">
    <defs>
        <style id="current-color-scheme" type="text/css">
            .ColorScheme-Text{color:#050505;opacity:.7}
        </style>
    </defs>
    <path fill="currentColor" d="M7 0C5.892 0 5 .892 5 2v1H3c-1.108 0-2 .892-2 2v9c0 1.108.892 2 2 2h6c.53 0 1.006-.207 1.363-.541a4.5 4.5 0 0 1-.863-.611A.975.975 0 0 1 9 15H3c-.554 0-1-.446-1-1V5a.998.998 0 0 1 1-1h2v5h3.76a4.5 4.5 0 0 1 1.72-1.52L6 3V2a.998.998 0 0 1 1-1h2v5h5v1.264a4.5 4.5 0 0 1 1 .496V5l-5-5H7zm3 1.414L13.586 5H10V1.414zm-4 3L9.586 8H6V4.414z" class="ColorScheme-Text"/>
    <path fill="currentColor" d="M12.5 8a3.5 3.5 0 1 0 0 7 3.5 3.5 0 0 0 0-7zm-1 1c.277 0 .5.223.5.5V12h2.5a.499.499 0 1 1 0 1h-3a.499.499 0 0 1-.5-.5v-3c0-.277.223-.5.5-.5z" class="ColorScheme-Text"/>
</svg>
